packages/sources/assets/src/assets/paylib.svg

<svg width="58" height="40" viewBox="0 0 58 40" fill="none" xmlns="http://www.w3.org/2000/svg">
<rect x="0.5" y="0.5" width="57" height="39" rx="3.5" fill="white" stroke="#F3F3F3"/>
<path fill-rule="evenodd" clip-rule="evenodd" d="M20.7611 15.8008L20.7465 15.21L22.3716 15.225L22.385 23.5544H20.4215L20.4245 23.1005C19.9553 23.4066 19.3381 23.5513 18.5167 23.5513C17.3836 23.5513 16.564 23.2847 16.0109 22.7361C15.3795 22.1102 15.0888 21.1155 15.0953 19.6047L15.0983 18.8863C15.1106 16.1863 16.0668 15.085 18.3981 15.085C19.4429 15.085 20.1962 15.3102 20.7611 15.8008ZM17.511 21.633C17.7508 21.8711 18.1321 21.9816 18.7101 21.9816C19.9145 21.9816 20.4301 21.5144 20.4338 20.4194L20.441 18.2483C20.443 17.6586 20.3323 17.2733 20.0922 17.0361C19.8437 16.7902 19.4144 16.6711 18.7808 16.6711C17.433 16.6711 17.0616 17.1852 17.0537 19.0636L17.0512 19.5902C17.0467 20.6983 17.184 21.3091 17.511 21.633Z" fill="#16D6FF"/>
<path fill-rule="evenodd" clip-rule="evenodd" d="M30.3039 15.2234H28.3764L28.3697 20.6117C28.3683 21.1792 28.287 21.4564 28.0687 21.6359C27.8174 21.8442 27.4364 21.9417 26.8685 21.9417C26.3089 21.9417 25.9375 21.8556 25.7002 21.6723C25.4785 21.4998 25.3888 21.2014 25.3902 20.6431L25.405 15.2234H23.4586L23.4678 20.8509C23.4653 21.8253 23.7741 22.5145 24.4119 22.9562C25.0064 23.377 25.7273 23.5487 26.8984 23.5487C27.4739 23.5487 27.9574 23.4995 28.3677 23.3998L28.377 24.1192C28.3756 24.7006 28.2864 24.8187 27.8437 24.8187H26.9649V26.4206H28.1615C29.6764 26.4206 30.2955 25.8276 30.2986 24.3737L30.3039 15.2234Z" fill="#16D6FF"/>
<path fill-rule="evenodd" clip-rule="evenodd" d="M9.69245 21.9312L9.69553 23.5573C9.69553 23.5573 10.832 23.5595 10.8778 23.5595C13.2642 23.5595 14.2875 22.3895 14.2998 19.6462L14.3031 18.9281C14.3104 17.4414 14.0278 16.4664 13.4143 15.8592C12.8858 15.337 12.1205 15.0934 11.0064 15.0934C9.97 15.0934 9.18767 15.3284 8.62559 15.8098L8.62084 15.2353L7 15.2248L7.01957 26.4203H8.98307L8.98419 18.2898C8.99146 17.1009 9.42106 16.6792 10.676 16.6792C11.2719 16.6792 11.6604 16.7895 11.9005 17.0267C12.2189 17.3417 12.3525 17.9437 12.3469 19.0381L12.3447 19.5648C12.336 21.4431 11.945 21.9262 10.6305 21.9289L9.69245 21.9312Z" fill="#16D6FF"/>
<path fill-rule="evenodd" clip-rule="evenodd" d="M44.2547 20.4841V10.2977C48.6557 11.3213 51.9346 15.2441 51.9343 19.9305C51.9343 25.3958 47.4768 29.8261 41.9781 29.8261C41.6581 29.8261 41.3417 29.8094 41.0295 29.7802V18.1647H38.9738V29.3666C34.9425 28.1005 32.0197 24.3547 32.0197 19.9305C32.0197 17.5061 32.8985 15.2861 34.3552 13.5652V21.358C34.3533 22.1402 34.5129 22.6699 34.8617 23.0241C35.2183 23.3858 35.7645 23.5547 36.5806 23.5547L37.785 23.5549C37.785 23.5549 37.785 23.3986 37.7861 23.0772L37.7878 22.3519V21.8602H36.8509C36.6483 21.8602 36.5186 21.828 36.4535 21.7624C36.3721 21.6799 36.3383 21.4924 36.3392 21.1533V11.7749C37.9427 10.678 39.8847 10.0347 41.9781 10.0347C42.0618 10.0347 42.1444 10.0375 42.2272 10.0403C42.2518 10.0411 42.2763 10.042 42.301 10.0427V20.583C42.299 21.5783 42.5299 22.2966 43.017 22.7788C43.5744 23.3308 44.4389 23.5772 45.8199 23.5772C48.4648 23.5772 49.594 22.3972 49.5977 19.6308L49.5991 18.9874C49.6005 17.5199 49.3098 16.6466 48.682 16.0269C48.1565 15.5083 47.3879 15.2438 46.335 15.2269L46.3347 15.228L45.0197 15.2269V16.8749H46.1953C46.6855 16.9066 46.9997 17.0194 47.2068 17.2336C47.5045 17.5416 47.6305 18.0122 47.6286 19.0397L47.628 19.5547C47.6255 21.7541 47.0547 21.9947 45.8445 21.9947C45.1723 21.9947 44.8036 21.8977 44.5736 21.6694C44.3522 21.4502 44.2533 21.0733 44.2547 20.4841ZM40.068 17.4722C40.7651 17.4722 41.1653 17.0877 41.1681 16.4166H41.1679V16.3083C41.1684 15.9747 41.0714 15.7088 40.8791 15.5191C40.6838 15.3263 40.3953 15.2241 40.0451 15.2241H39.9632C39.2658 15.2241 38.8485 15.6183 38.8469 16.2794L38.8463 16.3877C38.8455 16.7136 38.9436 16.9752 39.1378 17.1666C39.3396 17.3666 39.6323 17.4722 39.9858 17.4722H40.068Z" fill="#16D6FF"/>
</svg>

<svg width="58" height="40" fill="none" xmlns="http://www.w3.org/2000/svg"><rect x=".5" y=".5" width="57" height="39" rx="3.5" fill="#fff" stroke="#F3F3F3"/><path fill-rule="evenodd" clip-rule="evenodd" d="m20.761 15.8-.014-.59 1.625.015.013 8.33h-1.963l.002-.454c-.469.306-1.086.45-1.907.45-1.133 0-1.953-.266-2.506-.815-.631-.626-.922-1.62-.916-3.131l.003-.719c.013-2.7.969-3.801 3.3-3.801 1.045 0 1.798.225 2.363.716Zm-3.25 5.833c.24.238.621.349 1.2.349 1.204 0 1.72-.468 1.723-1.563l.007-2.17c.002-.59-.109-.976-.349-1.213-.248-.246-.678-.365-1.311-.365-1.348 0-1.72.514-1.727 2.393l-.003.526c-.004 1.108.133 1.72.46 2.043Zm12.793-6.41h-1.928l-.006 5.389c-.002.567-.083.844-.301 1.024-.252.208-.633.306-1.2.306-.56 0-.931-.086-1.169-.27-.221-.172-.311-.47-.31-1.029l.015-5.42h-1.946l.009 5.628c-.003.974.306 1.664.944 2.105.594.421 1.315.593 2.486.593.576 0 1.06-.05 1.47-.15l.009.72c-.001.582-.09.7-.533.7h-.88v1.602h1.198c1.514 0 2.134-.593 2.137-2.047l.005-9.15ZM9.692 21.931l.004 1.626 1.182.003c2.386 0 3.41-1.17 3.422-3.914l.003-.718c.007-1.487-.275-2.462-.889-3.069-.528-.522-1.293-.766-2.408-.766-1.036 0-1.818.235-2.38.717l-.005-.575L7 15.225l.02 11.195h1.963l.001-8.13c.007-1.19.437-1.61 1.692-1.61.596 0 .984.11 1.224.347.319.315.452.917.447 2.011l-.002.527c-.009 1.878-.4 2.361-1.715 2.364l-.938.002Zm34.563-1.447V10.298c4.4 1.023 7.68 4.946 7.68 9.632 0 5.466-4.458 9.896-9.957 9.896-.32 0-.636-.017-.949-.046V18.165h-2.055v11.202c-4.031-1.267-6.954-5.012-6.954-9.437 0-2.424.878-4.644 2.335-6.365v7.793c-.002.782.158 1.312.507 1.666.356.362.902.53 1.719.53h1.204l.001-.477.002-.725v-.492h-.937c-.203 0-.332-.032-.398-.098-.08-.082-.115-.27-.114-.609v-9.378a9.954 9.954 0 0 1 5.64-1.74c.083 0 .165.002.248.005l.074.003v10.54c-.002.995.229 1.714.716 2.196.557.552 1.422.798 2.803.798 2.645 0 3.774-1.18 3.778-3.946l.001-.644c.002-1.467-.29-2.34-.917-2.96-.526-.519-1.294-.783-2.347-.8v.001l-1.315-.001v1.648h1.175c.49.032.805.144 1.012.359.297.308.423.778.422 1.806l-.001.515c-.002 2.2-.573 2.44-1.784 2.44-.672 0-1.04-.097-1.27-.326-.222-.219-.32-.596-.32-1.185Zm-4.187-3.012c.697 0 1.097-.384 1.1-1.055v-.109c0-.333-.097-.6-.289-.789-.195-.193-.484-.295-.834-.295h-.082c-.697 0-1.114.394-1.116 1.055v.109c-.002.326.097.587.29.779.203.2.495.305.849.305h.082Z" fill="#16D6FF"/></svg>
